popup/bubble.svg

<svg xmlns="http://www.w3.org/2000/svg" width="786" height="588"><path fill-rule="evenodd" fill="#FFF" d="M45 550.999c47.734-74.481 109.908-195.544-45-247 155.36-56.598 116.165-124.569 36.999-263 202.902 133.727 224.746 70.413 239-37.999C399.23 178.179 425.934 102.35 510 0c17.21 143.778 105.515 112.796 215 53.999-69.765 87.628-47.422 166.522 60.999 187.001C643.135 345.569 649.703 404.269 749 577c-178.468-118.122-199.546-111.149-251 7.999-100.085-96.518-97.072-114.27-196 3-30.536-126.589-53.391-122.405-257-37"/></svg>

<svg 
 xmlns="http://www.w3.org/2000/svg"
 xmlns:xlink="http://www.w3.org/1999/xlink"
 width="786px" height="588px">
<path fill-rule="evenodd"  fill="rgb(255, 255, 255)"
 d="M45.0,550.999 C92.734,476.518 154.908,355.455 0.0,303.999 C155.36,247.401 116.165,179.43 36.999,40.999 C239.901,174.726 261.745,111.412 275.999,3.0 C399.23,178.179 425.934,102.350 510.0,0.0 C527.210,143.778 615.515,112.796 725.0,53.999 C655.235,141.627 677.578,220.521 785.999,241.0 C643.135,345.569 649.703,404.269 749.0,577.0 C570.532,458.878 549.454,465.851 498.0,584.999 C397.915,488.481 400.928,470.729 302.0,587.999 C271.464,461.41 248.609,465.594 45.0,550.999 Z"/>
</svg>
